public/topics/37.svg

<svg width="250" height="250" viewBox="0 0 250 250" fill="none" xmlns="http://www.w3.org/2000/svg">
<rect width="250" height="250" rx="30" fill="#B15124"/>
<path d="M84 115C94.9333 117.4 104 122.133 111.2 129.2C118.4 136.267 122 144.467 122 153.8C122 159.4 120.667 164.867 118 170.2C113.733 178.733 107.333 185.133 98.8 189.4C90.4 193.667 80.6667 195.8 69.6 195.8C62.6667 195.8 56.4667 194.533 51 192C45.5333 189.333 40.1333 185.8 34.8 181.4C32.8 179.533 31 176.867 29.4 173.4C27.9333 169.933 27.2 167.067 27.2 164.8C27.2 161.867 28 159.533 29.6 157.8C31.3333 155.933 33.6 155 36.4 155C39.2 155 41.4 155.667 43 157C44.6 158.333 46.5333 160.467 48.8 163.4C50.9333 166.2 52.8667 168.467 54.6 170.2C56.3333 171.8 58.6667 173.2 61.6 174.4C64.5333 175.6 68.2 176.2 72.6 176.2C81.5333 176.2 88.5333 174 93.6 169.6C98.6667 165.2 101.2 159 101.2 151C101.2 147.933 99.5333 144.867 96.2 141.8C92.8667 138.6 89.7333 136.333 86.8 135C85.0667 134.067 81.8667 133.133 77.2 132.2C70.9333 130.6 66.2 129.067 63 127.6C59.9333 126 58.4 123.533 58.4 120.2C58.4 117.933 59.4 115.733 61.4 113.6C63.4 111.333 66.4 108.533 70.4 105.2C74.4 101.867 77.4 99.1333 79.4 97C81.4 94.7333 82.4 92.4667 82.4 90.2C79.8667 89.5333 76.0667 89.2 71 89.2C68.7333 89.2 65.3333 89.3333 60.8 89.6C56.8 89.8667 53.7333 90 51.6 90C46.8 90 42.6667 89.2 39.2 87.6C35.8667 86 34.2 83.9333 34.2 81.4C34.2 78.6 34.4667 76.4 35 74.8C35.5333 73.0667 36.5333 72 38 71.6C38.9333 71.2 40.6 71 43 71C49.5333 71 55.2 71.2 60 71.6C65.3333 71.8667 69.4 72 72.2 72L88.8 71.8C102.4 71.8 109.2 75.0667 109.2 81.6C109.2 86.5333 106.667 92.1333 101.6 98.4C96.6667 104.533 90.8 110.067 84 115ZM224.584 78.2C222.851 86.3333 220.651 94.4 217.984 102.4C215.451 110.4 212.184 119.6 208.184 130C201.384 148.267 196.584 163 193.784 174.2C191.518 181.8 189.384 187.267 187.384 190.6C185.384 193.933 183.051 195.6 180.384 195.6C178.251 195.6 175.384 194.333 171.784 191.8C170.851 190.6 170.384 188.933 170.384 186.8C170.384 185.067 170.851 182.533 171.784 179.2C172.718 175.733 173.851 171.933 175.184 167.8L177.584 160.6C179.318 154.867 182.251 147.133 186.384 137.4C189.451 129.933 192.184 122.733 194.584 115.8C197.118 108.867 199.584 100.6 201.984 91C195.051 93.1333 188.184 94.2 181.384 94.2C178.051 94.2 172.984 93.7333 166.184 92.8C160.584 92 156.584 91.6 154.184 91.6C154.318 93.6 155.318 97.4 157.184 103C159.451 108.733 160.584 113.067 160.584 116C160.584 117.733 159.984 119.2 158.784 120.4C157.584 121.6 155.651 122.2 152.984 122.2C149.518 122.2 146.851 121.133 144.984 119C143.251 116.733 141.784 114.2 140.584 111.4C139.518 108.467 138.718 106.467 138.184 105.4C136.318 101.133 134.851 96.7333 133.784 92.2C132.718 87.5333 132.184 83.4 132.184 79.8C132.184 77.6667 132.718 75.8 133.784 74.2C134.984 72.6 136.318 71.8 137.784 71.8C139.784 72.0667 142.784 72.6 146.784 73.4C153.184 74.4667 158.518 75.3333 162.784 76C167.184 76.5333 171.851 76.8 176.784 76.8C188.918 76.8 198.251 74.6667 204.784 70.4C205.718 69.8667 207.118 69.6 208.984 69.6C212.451 69.6 215.918 70.4667 219.384 72.2C222.851 73.8 224.584 75.8 224.584 78.2Z" fill="white"/>
</svg>

<svg xmlns="http://www.w3.org/2000/svg" width="250" height="250" fill="none" viewBox="0 0 250 250"><rect width="250" height="250" fill="#b15124" rx="30"/><path fill="#fff" d="M84 115q16.4 3.6 27.2 14.2t10.8 24.6q0 8.4-4 16.4-6.4 12.8-19.2 19.2-12.6 6.4-29.2 6.4-10.4 0-18.6-3.8-8.2-4-16.2-10.6-3-2.8-5.4-8-2.2-5.2-2.2-8.6 0-4.4 2.4-7 2.6-2.8 6.8-2.8t6.6 2 5.8 6.4q3.2 4.2 5.8 6.8 2.6 2.4 7 4.2t11 1.8q13.4 0 21-6.6t7.6-18.6q0-4.6-5-9.2-5-4.8-9.4-6.8-2.6-1.4-9.6-2.8-9.4-2.4-14.2-4.6-4.6-2.4-4.6-7.4 0-3.4 3-6.6 3-3.4 9-8.4t9-8.2q3-3.4 3-6.8-3.8-1-11.4-1-3.4 0-10.2.4-6 .4-9.2.4-7.2 0-12.4-2.4-5-2.4-5-6.2 0-4.2.8-6.6.8-2.6 3-3.2 1.4-.6 5-.6 9.8 0 17 .6 8 .4 12.2.4l16.6-.2q20.4 0 20.4 9.8 0 7.4-7.6 16.8-7.4 9.2-17.6 16.6m140.584-36.8a224 224 0 0 1-6.6 24.2q-3.8 12-9.8 27.6-10.2 27.4-14.4 44.2-3.4 11.4-6.4 16.4t-7 5q-3.2 0-8.6-3.8-1.4-1.8-1.4-5 0-2.6 1.4-7.6 1.4-5.2 3.4-11.4l2.4-7.2q2.6-8.6 8.8-23.2 4.6-11.2 8.2-21.6 3.8-10.4 7.4-24.8-10.4 3.2-20.6 3.2-5 0-15.2-1.4-8.4-1.2-12-1.2.201 3 3 11.4 3.4 8.6 3.4 13 0 2.6-1.8 4.4t-5.8 1.8q-5.2 0-8-3.2-2.6-3.4-4.4-7.6-1.599-4.4-2.4-6a77 77 0 0 1-4.4-13.2q-1.6-7-1.6-12.4 0-3.2 1.6-5.6 1.8-2.4 4-2.4 3 .4 9 1.6 9.6 1.6 16 2.6 6.6.8 14 .8 18.2 0 28-6.4 1.401-.8 4.2-.8 5.2 0 10.4 2.6 5.2 2.4 5.2 6"/></svg>
